svg/aws-ec2-m4.svg

<?xml version="1.0" encoding="UTF-8"?>
<svg xmlns="http://www.w3.org/2000/svg" xmlns:xlink="http://www.w3.org/1999/xlink" width="32" height="32" viewBox="0 0 32 32">
<path fill-rule="evenodd" fill="rgb(83.137255%, 35.686275%, 2.745098%)" fill-opacity="1" d="M 18.59375 17.042969 L 20.542969 14.195312 L 20.542969 17.042969 Z M 20.542969 19.261719 L 21.65625 19.261719 L 21.65625 17.917969 L 22.523438 17.917969 L 22.523438 17.042969 L 21.65625 17.042969 L 21.65625 12.796875 L 20.496094 12.796875 L 17.484375 17.089844 L 17.484375 17.917969 L 20.542969 17.917969 Z M 11.109375 19.261719 L 10.0625 19.261719 L 10.0625 12.796875 L 11.332031 12.796875 L 13.273438 16.648438 L 15.253906 12.796875 L 16.484375 12.796875 L 16.484375 19.261719 L 15.441406 19.261719 L 15.441406 14.417969 L 13.761719 17.636719 L 12.734375 17.636719 L 11.109375 14.4375 Z M 6 26 L 26 26 L 26 6 L 6 6 Z M 30.667969 8.664062 L 30.667969 7.332031 L 27.332031 7.332031 L 27.332031 5.332031 C 27.332031 4.964844 27.035156 4.667969 26.667969 4.667969 L 24.667969 4.667969 L 24.667969 1.332031 L 23.332031 1.332031 L 23.332031 4.667969 L 20.667969 4.667969 L 20.667969 1.332031 L 19.332031 1.332031 L 19.332031 4.667969 L 16.667969 4.667969 L 16.667969 1.332031 L 15.332031 1.332031 L 15.332031 4.667969 L 12.667969 4.667969 L 12.667969 1.332031 L 11.332031 1.332031 L 11.332031 4.667969 L 8.667969 4.667969 L 8.667969 1.332031 L 7.332031 1.332031 L 7.332031 4.667969 L 5.332031 4.667969 C 4.964844 4.667969 4.667969 4.964844 4.667969 5.332031 L 4.667969 7.332031 L 1.332031 7.332031 L 1.332031 8.664062 L 4.667969 8.664062 L 4.667969 11.332031 L 1.332031 11.332031 L 1.332031 12.667969 L 4.667969 12.667969 L 4.667969 15.332031 L 1.332031 15.332031 L 1.332031 16.667969 L 4.667969 16.667969 L 4.667969 19.332031 L 1.332031 19.332031 L 1.332031 20.664062 L 4.667969 20.664062 L 4.667969 23.332031 L 1.332031 23.332031 L 1.332031 24.667969 L 4.667969 24.667969 L 4.667969 26.667969 C 4.667969 27.035156 4.964844 27.332031 5.332031 27.332031 L 7.332031 27.332031 L 7.332031 30.664062 L 8.667969 30.664062 L 8.667969 27.332031 L 11.332031 27.332031 L 11.332031 30.664062 L 12.667969 30.664062 L 12.667969 27.332031 L 15.332031 27.332031 L 15.332031 30.664062 L 16.667969 30.664062 L 16.667969 27.332031 L 19.332031 27.332031 L 19.332031 30.664062 L 20.667969 30.664062 L 20.667969 27.332031 L 23.332031 27.332031 L 23.332031 30.664062 L 24.667969 30.664062 L 24.667969 27.332031 L 26.667969 27.332031 C 27.035156 27.332031 27.332031 27.035156 27.332031 26.667969 L 27.332031 24.667969 L 30.667969 24.667969 L 30.667969 23.332031 L 27.332031 23.332031 L 27.332031 20.664062 L 30.667969 20.664062 L 30.667969 19.332031 L 27.332031 19.332031 L 27.332031 16.667969 L 30.667969 16.667969 L 30.667969 15.332031 L 27.332031 15.332031 L 27.332031 12.667969 L 30.667969 12.667969 L 30.667969 11.332031 L 27.332031 11.332031 L 27.332031 8.664062 Z M 30.667969 8.664062 "/>
</svg>

<svg role="img" viewBox="0 0 32 32" height="32" width="32" xmlns="http://www.w3.org/2000/svg"><path d="m18.594 17.043 1.949-2.848v2.848Zm1.949 2.219h1.113v-1.344h.867v-.875h-.867v-4.246h-1.16l-3.012 4.293v.828h3.059Zm-9.434 0h-1.046v-6.465h1.269l1.941 3.851 1.98-3.851h1.231v6.465h-1.043v-4.844l-1.68 3.219h-1.027l-1.625-3.2ZM6 26h20V6H6ZM30.668 8.664V7.332h-3.336v-2a.664.664 0 0 0-.664-.664h-2V1.332h-1.336v3.336h-2.664V1.332h-1.336v3.336h-2.664V1.332h-1.336v3.336h-2.664V1.332h-1.336v3.336H8.668V1.332H7.332v3.336h-2a.664.664 0 0 0-.664.664v2H1.332v1.332h3.336v2.668H1.332v1.336h3.336v2.664H1.332v1.336h3.336v2.664H1.332v1.332h3.336v2.668H1.332v1.336h3.336v2c0 .367.297.664.664.664h2v3.332h1.336v-3.332h2.664v3.332h1.336v-3.332h2.664v3.332h1.336v-3.332h2.664v3.332h1.336v-3.332h2.664v3.332h1.336v-3.332h2a.664.664 0 0 0 .664-.664v-2h3.336v-1.336h-3.336v-2.668h3.336v-1.332h-3.336v-2.664h3.336v-1.336h-3.336v-2.664h3.336v-1.336h-3.336V8.664Zm0 0" fill="rgb(83.137255%, 35.686275%, 2.745098%)" fill-rule="evenodd"/></svg>
